;FLAVOR:Marlin
;TIME:809
;Filament used: 0.93011m
;Layer height: 0.2
;Generated with Cura_SteamEngine 3.4.1
M82 ;absolute extrusion mode
M82 ;absolute extrusion mode
M140 S60 ; begin heating bed
G21 ;metric values
G90 ;absolute positioning
M107 ;start with the fan off
G28 ;move to endstops
G29
G1 X10 Y10 Z3 F3000
M109 S200 ; Wait for nozzle temp
G92 E0 ;zero the extruded length
G1 E20 F200 ;extrude 3mm of feed stock
G92 E0 ;zero the extruded length again
M117 Printing...
G92 E0
G1 F1500 E-6.5
;LAYER_COUNT:50
;LAYER:0
M107
G0 F2400 X138.803 Y136.155 Z0.3
;TYPE:SKIRT
G1 F1500 E0
G1 F1200 X139.112 Y135.935 E0.01892
G1 X139.459 Y135.783 E0.03782
G1 X140 Y135.7 E0.06513
G1 X160 Y135.7 E1.06293
G1 X160.377 Y135.74 E1.08185
G1 X160.737 Y135.858 E1.10075
G1 X161.064 Y136.048 E1.11962
G1 X161.345 Y136.303 E1.13855
G1 X161.565 Y136.612 E1.15747
G1 X161.717 Y136.959 E1.17637
G1 X161.8 Y137.5 E1.20368
G1 X161.8 Y162.5 E2.45093
G1 X161.76 Y162.877 E2.46985
G1 X161.642 Y163.237 E2.48875
G1 X161.452 Y163.564 E2.50762
G1 X161.197 Y163.845 E2.52655
G1 X160.888 Y164.065 E2.54547
G1 X160.541 Y164.217 E2.56437
G1 X160 Y164.3 E2.59168
G1 X140 Y164.3 E3.58948
G1 X139.623 Y164.26 E3.6084
G1 X139.263 Y164.142 E3.6273
G1 X138.936 Y163.952 E3.64617
G1 X138.655 Y163.697 E3.6651
G1 X138.435 Y163.388 E3.68402
G1 X138.283 Y163.041 E3.70292
G1 X138.2 Y162.5 E3.73023
G1 X138.2 Y137.5 E4.97748
G1 X138.24 Y137.123 E4.9964
G1 X138.358 Y136.763 E5.0153
G1 X138.548 Y136.436 E5.03417
G1 X138.803 Y136.155 E5.0531
G0 F2400 X139.193 Y136.356
G1 F1200 X139.487 Y136.197 E5.06977
G1 X139.811 Y136.113 E5.08647
G1 X140 Y136.1 E5.09592
G1 X160 Y136.1 E6.09373
G1 X160.332 Y136.14 E6.11041
G1 X160.644 Y136.257 E6.12703
G1 X160.921 Y136.445 E6.14374
G1 X161.144 Y136.693 E6.16037
G1 X161.303 Y136.987 E6.17705
G1 X161.387 Y137.311 E6.19375
G1 X161.4 Y137.5 E6.2032
G1 X161.4 Y162.5 E7.45046
G1 X161.36 Y162.832 E7.46714
G1 X161.243 Y163.144 E7.48376
G1 X161.055 Y163.421 E7.50047
G1 X160.807 Y163.644 E7.5171
G1 X160.513 Y163.803 E7.53378
G1 X160.189 Y163.887 E7.55048
G1 X160 Y163.9 E7.55993
G1 X140 Y163.9 E8.55773
G1 X139.668 Y163.86 E8.57442
G1 X139.356 Y163.743 E8.59104
G1 X139.079 Y163.555 E8.60774
G1 X138.856 Y163.307 E8.62438
G1 X138.697 Y163.013 E8.64106
G1 X138.613 Y162.689 E8.65776
G1 X138.6 Y162.5 E8.66721
G1 X138.6 Y137.5 E9.91446
G1 X138.64 Y137.168 E9.93115
G1 X138.757 Y136.856 E9.94777
G1 X138.945 Y136.579 E9.96447
G1 X139.193 Y136.356 E9.98111
G0 F2400 X139.339 Y136.749
G1 F1200 X139.575 Y136.595 E9.99517
G1 X139.845 Y136.512 E10.00926
G1 X140 Y136.5 E10.01702
G1 X160 Y136.5 E11.01482
G1 X160.279 Y136.54 E11.02889
G1 X160.536 Y136.656 E11.04295
G1 X160.751 Y136.839 E11.05704
G1 X160.905 Y137.075 E11.0711
G1 X160.988 Y137.345 E11.08519
G1 X161 Y137.5 E11.09295
G1 X161 Y162.5 E12.3402
G1 X160.96 Y162.779 E12.35426
G1 X160.844 Y163.036 E12.36833
G1 X160.661 Y163.251 E12.38242
G1 X160.425 Y163.405 E12.39648
G1 X160.155 Y163.488 E12.41057
G1 X160 Y163.5 E12.41832
G1 X140 Y163.5 E13.41613
G1 X139.721 Y163.46 E13.43019
G1 X139.464 Y163.344 E13.44426
G1 X139.249 Y163.161 E13.45834
G1 X139.095 Y162.925 E13.4724
G1 X139.012 Y162.655 E13.48649
G1 X139 Y162.5 E13.49425
G1 X139 Y137.5 E14.74151
G1 X139.04 Y137.221 E14.75557
G1 X139.156 Y136.964 E14.76963
G1 X139.339 Y136.749 E14.78372
G0 F2400 X139.553 Y137.099
G1 F1200 X139.726 Y136.966 E14.79461
G1 X140 Y136.9 E14.80867
G1 X160 Y136.9 E15.80647
G1 X160.215 Y136.94 E15.81738
G1 X160.401 Y137.053 E15.82824
G1 X160.534 Y137.226 E15.83913
G1 X160.6 Y137.5 E15.85319
G1 X160.6 Y162.5 E17.10044
G1 X160.56 Y162.715 E17.11135
G1 X160.447 Y162.901 E17.12221
G1 X160.274 Y163.034 E17.1331
G1 X160 Y163.1 E17.14716
G1 X140 Y163.1 E18.14496
G1 X139.785 Y163.06 E18.15587
G1 X139.599 Y162.947 E18.16673
G1 X139.466 Y162.774 E18.17762
G1 X139.4 Y162.5 E18.19168
G1 X139.4 Y137.5 E19.43893
G1 X139.44 Y137.285 E19.44985
G1 X139.553 Y137.099 E19.4607
G0 F2400 X139.839 Y137.381
G1 F1200 X140 Y137.3 E19.46969
G1 X160 Y137.3 E20.4675
G1 X160.119 Y137.339 E20.47375
G1 X160.2 Y137.5 E20.48274
G1 X160.2 Y162.5 E21.72999
G1 X160.161 Y162.619 E21.73624
G1 X160 Y162.7 E21.74523
G1 X140 Y162.7 E22.74304
G1 X139.881 Y162.661 E22.74928
G1 X139.8 Y162.5 E22.75828
G1 X139.8 Y137.5 E24.00553
G1 X139.839 Y137.381 E24.01178
G1 F1500 E17.51178
G0 F2400 X140.614 Y138.114
G0 X159.33 Y161.83
G0 X159.8 Y162.3
;TYPE:WALL-OUTER
G1 F1500 E24.01178
G1 F1200 X140.2 Y162.3 E24.98963
G1 X140.2 Y137.7 E26.21693
G1 X159.8 Y137.7 E27.19477
G1 X159.8 Y162.3 E28.42207
G0 F2400 X159.6 Y162.3
G0 X159.4 Y161.9
;TYPE:WALL-INNER
G1 F1200 X140.6 Y161.9 E29.36001
G1 X140.6 Y138.1 E30.54739
G1 X159.4 Y138.1 E31.48533
G1 X159.4 Y161.9 E32.67272
G0 F2400 X159.01 Y161.51
;TYPE:SKIN
G1 F1200 X140.99 Y161.51 E33.57174
G1 X140.99 Y138.49 E34.72021
G1 X159.01 Y138.49 E35.61923
G1 X159.01 Y161.51 E36.76771
G0 F2400 X141.53 Y161.329
G1 F1200 X141.168 Y160.967 E36.79325
G0 F2400 X141.168 Y160.402
G1 F1200 X142.095 Y161.329 E36.85865
G1 X142.165 Y161.399
G0 F2400 X142.661 Y161.329
G1 F1200 X141.168 Y159.836 E36.96399
G1 X141.098 Y159.766
G0 F2400 X141.168 Y159.27
G1 F1200 X143.227 Y161.329 E37.10926
G1 X143.297 Y161.399
G0 F2400 X143.792 Y161.329
G1 F1200 X141.168 Y158.705 E37.2944
G1 X141.098 Y158.635
G0 F2400 X141.168 Y158.139
G1 F1200 X144.358 Y161.329 E37.51947
G1 X144.428 Y161.399
G0 F2400 X144.924 Y161.329
G1 F1200 X141.168 Y157.573 E37.78448
G1 X141.098 Y157.503
G0 F2400 X141.168 Y157.008
G1 F1200 X145.49 Y161.329 E38.08938
G1 X145.56 Y161.399
G0 F2400 X146.055 Y161.329
G1 F1200 X141.168 Y156.442 E38.43419
G1 X141.098 Y156.372
G0 F2400 X141.168 Y155.876
G1 F1200 X146.621 Y161.329 E38.81893
G1 X146.691 Y161.399
G0 F2400 X147.187 Y161.329
G1 F1200 X141.168 Y155.311 E39.24356
G1 X141.098 Y155.241
G0 F2400 X141.168 Y154.745
G1 F1200 X147.752 Y161.329 E39.7081
G1 X147.822 Y161.399
G0 F2400 X148.318 Y161.329
G1 F1200 X141.168 Y154.179 E40.21257
G1 X141.098 Y154.109
G0 F2400 X141.168 Y153.613
G1 F1200 X148.884 Y161.329 E40.75698
G1 X148.954 Y161.399
G0 F2400 X149.449 Y161.329
G1 F1200 X141.168 Y153.048 E41.34125
G1 X141.098 Y152.978
G0 F2400 X141.168 Y152.482
G1 F1200 X150.015 Y161.329 E41.96545
G1 X150.085 Y161.399
G0 F2400 X150.581 Y161.329
G1 F1200 X141.168 Y151.916 E42.62959
G1 X141.098 Y151.846
G0 F2400 X141.168 Y151.351
G1 F1200 X151.146 Y161.329 E43.33359
G1 X151.216 Y161.399
G0 F2400 X151.712 Y161.329
G1 F1200 X141.168 Y150.785 E44.07753
G1 X141.098 Y150.715
G0 F2400 X141.168 Y150.219
G1 F1200 X152.278 Y161.329 E44.8614
G1 X152.348 Y161.399
G0 F2400 X152.843 Y161.329
G1 F1200 X141.168 Y149.654 E45.68513
G1 X141.098 Y149.584
G0 F2400 X141.168 Y149.088
G1 F1200 X153.409 Y161.329 E46.5488
G1 X153.479 Y161.399
G0 F2400 X153.975 Y161.329
G1 F1200 X141.168 Y148.522 E47.4524
G1 X141.098 Y148.452
G0 F2400 X141.168 Y147.957
G1 F1200 X154.541 Y161.329 E48.39591
G1 X154.611 Y161.399
G0 F2400 X155.106 Y161.329
G1 F1200 X141.168 Y147.391 E49.37931
G1 X141.098 Y147.321
G0 F2400 X141.168 Y146.825
G1 F1200 X155.672 Y161.329 E50.40264
G1 X155.742 Y161.399
G0 F2400 X156.238 Y161.329
G1 F1200 X141.168 Y146.26 E51.46588
G1 X141.098 Y146.19
G0 F2400 X141.168 Y145.694
G1 F1200 X156.803 Y161.329 E52.56901
G1 X156.873 Y161.399
G0 F2400 X157.369 Y161.329
G1 F1200 X141.168 Y145.128 E53.71208
G1 X141.098 Y145.058
G0 F2400 X141.168 Y144.563
G1 F1200 X157.935 Y161.329 E54.89505
G1 X158.005 Y161.399
G0 F2400 X158.5 Y161.329
G1 F1200 X141.168 Y143.997 E56.11791
G1 X141.098 Y143.927
G0 F2400 X141.168 Y143.431
G1 F1200 X158.83 Y161.093 E57.36406
G1 X158.9 Y161.163
G0 F2400 X158.83 Y160.527
G1 F1200 X141.168 Y142.865 E58.61021
G1 X141.098 Y142.795
G0 F2400 X141.168 Y142.3
G1 F1200 X158.83 Y159.961 E59.85633
G1 X158.9 Y160.031
G0 F2400 X158.83 Y159.396
G1 F1200 X141.168 Y141.734 E61.10247
G1 X141.098 Y141.664
G0 F2400 X141.168 Y141.168
G1 F1200 X158.83 Y158.83 E62.34862
G1 X158.9 Y158.9
G0 F2400 X158.83 Y158.264
G1 F1200 X141.168 Y140.603 E63.59474
G1 X141.098 Y140.533
G0 F2400 X141.168 Y140.037
G1 F1200 X158.83 Y157.698 E64.84085
G1 X158.9 Y157.768
G0 F2400 X158.83 Y157.133
G1 F1200 X141.168 Y139.471 E66.087
G1 X141.098 Y139.401
G0 F2400 X141.168 Y138.906
G1 F1200 X158.83 Y156.567 E67.33312
G1 X158.9 Y156.637
G0 F2400 X158.83 Y156.001
G1 F1200 X141.498 Y138.67 E68.55595
G1 X141.428 Y138.6
G0 F2400 X142.064 Y138.67
G1 F1200 X158.83 Y155.436 E69.73888
G1 X158.9 Y155.506
G0 F2400 X158.83 Y154.87
G1 F1200 X142.629 Y138.67 E70.88191
G1 X142.559 Y138.6
G0 F2400 X143.195 Y138.67
G1 F1200 X158.83 Y154.304 E71.98501
G1 X158.9 Y154.374
G0 F2400 X158.83 Y153.739
G1 F1200 X143.761 Y138.67 E73.04821
G1 X143.691 Y138.6
G0 F2400 X144.326 Y138.67
G1 F1200 X158.83 Y153.173 E74.07151
G1 X158.9 Y153.243
G0 F2400 X158.83 Y152.607
G1 F1200 X144.892 Y138.67 E75.05488
G1 X144.822 Y138.6
G0 F2400 X145.458 Y138.67
G1 F1200 X158.83 Y152.042 E75.99834
G1 X158.9 Y152.112
G0 F2400 X158.83 Y151.476
G1 F1200 X146.023 Y138.67 E76.90191
G1 X145.953 Y138.6
G0 F2400 X146.589 Y138.67
G1 F1200 X158.83 Y150.91 E77.76554
G1 X158.9 Y150.98
G0 F2400 X158.83 Y150.345
G1 F1200 X147.155 Y138.67 E78.58928
G1 X147.085 Y138.6
G0 F2400 X147.72 Y138.67
G1 F1200 X158.83 Y149.779 E79.37311
G1 X158.9 Y149.849
G0 F2400 X158.83 Y149.213
G1 F1200 X148.286 Y138.67 E80.11701
G1 X148.216 Y138.6
G0 F2400 X148.852 Y138.67
G1 F1200 X158.83 Y148.647 E80.82098
G1 X158.9 Y148.717
G0 F2400 X158.83 Y148.082
G1 F1200 X149.418 Y138.67 E81.48505
G1 X149.348 Y138.6
G0 F2400 X149.983 Y138.67
G1 F1200 X158.83 Y147.516 E82.10922
G1 X158.9 Y147.586
G0 F2400 X158.83 Y146.95
G1 F1200 X150.549 Y138.67 E82.69345
G1 X150.479 Y138.6
G0 F2400 X151.115 Y138.67
G1 F1200 X158.83 Y146.385 E83.23779
G1 X158.9 Y146.455
G0 F2400 X158.83 Y145.819
G1 F1200 X151.68 Y138.67 E83.74222
G1 X151.61 Y138.6
G0 F2400 X152.246 Y138.67
G1 F1200 X158.83 Y145.253 E84.20672
G1 X158.9 Y145.323
G0 F2400 X158.83 Y144.688
G1 F1200 X152.812 Y138.67 E84.63133
G1 X152.742 Y138.6
G0 F2400 X153.377 Y138.67
G1 F1200 X158.83 Y144.122 E85.01603
G1 X158.9 Y144.192
G0 F2400 X158.83 Y143.556
G1 F1200 X153.943 Y138.67 E85.3608
G1 X153.873 Y138.6
G0 F2400 X154.509 Y138.67
G1 F1200 X158.83 Y142.991 E85.66567
G1 X158.9 Y143.061
G0 F2400 X158.83 Y142.425
G1 F1200 X155.074 Y138.67 E85.93064
G1 X155.004 Y138.6
G0 F2400 X155.64 Y138.67
G1 F1200 X158.83 Y141.859 E86.15567
G1 X158.9 Y141.929
G0 F2400 X158.83 Y141.294
G1 F1200 X156.206 Y138.67 E86.34081
G1 X156.136 Y138.6
G0 F2400 X156.771 Y138.67
G1 F1200 X158.83 Y140.728 E86.48605
G1 X158.9 Y140.798
G0 F2400 X158.83 Y140.162
G1 F1200 X157.337 Y138.67 E86.59135
G1 X157.267 Y138.6
G0 F2400 X157.903 Y138.67
G1 F1200 X158.83 Y139.597 E86.65676
G1 X158.9 Y139.667
G0 F2400 X158.83 Y139.031
M104 S200
G1 F1200 X158.468 Y138.67 E86.68226
G0 F2400 X159.33 Y161.83
G0 X159.4 Y161.9
;TIME_ELAPSED:100.404323
;LAYER:1
M140 S60
M106 S255
G0 F4800 X159.4 Y161.9 Z0.5
;TYPE:WALL-INNER
G1 F2400 X140.6 Y161.9 E87.30756
G1 X140.6 Y138.1 E88.09915
G1 X159.4 Y138.1 E88.72444
G1 X159.4 Y161.9 E89.51603
G0 F4800 X159.8 Y162.3
;TYPE:WALL-OUTER
G1 F1500 X140.2 Y162.3 E90.16793
G1 X140.2 Y137.7 E90.98613
G1 X159.8 Y137.7 E91.63802
G1 X159.8 Y162.3 E92.45622
G0 F4800 X159.6 Y162.3
G0 X159.33 Y161.83
G0 X159.01 Y161.51
;TYPE:SKIN
G1 F1500 X140.99 Y161.51 E93.05557
G1 X140.99 Y138.49 E93.82122
G1 X159.01 Y138.49 E94.42057
G1 X159.01 Y161.51 E95.18622
G0 F4800 X158.283 Y161.329
G1 F1500 X158.829 Y160.782 E95.21192
G0 F4800 X158.829 Y160.216
G1 F1500 X157.717 Y161.329 E95.26425
G1 X157.647 Y161.399
G0 F4800 X157.151 Y161.329
G1 F1500 X158.829 Y159.651 E95.34318
G1 X158.899 Y159.581
G0 F4800 X158.829 Y159.085
G1 F1500 X156.585 Y161.329 E95.44873
G1 X156.515 Y161.399
G0 F4800 X156.02 Y161.329
G1 F1500 X158.829 Y158.519 E95.58088
G1 X158.899 Y158.449
G0 F4800 X158.829 Y157.954
G1 F1500 X155.454 Y161.329 E95.73963
G1 X155.384 Y161.399
G0 F4800 X154.888 Y161.329
G1 F1500 X158.829 Y157.388 E95.925
G1 X158.899 Y157.318
G0 F4800 X158.829 Y156.822
G1 F1500 X154.323 Y161.329 E96.13697
G1 X154.253 Y161.399
G0 F4800 X153.757 Y161.329
G1 F1500 X158.829 Y156.257 E96.37554
G1 X158.899 Y156.187
G0 F4800 X158.829 Y155.691
G1 F1500 X153.191 Y161.329 E96.64074
G1 X153.121 Y161.399
G0 F4800 X152.626 Y161.329
G1 F1500 X158.829 Y155.125 E96.93253
G1 X158.899 Y155.055
G0 F4800 X158.829 Y154.56
G1 F1500 X152.06 Y161.329 E97.25093
G1 X151.99 Y161.399
G0 F4800 X151.494 Y161.329
G1 F1500 X158.829 Y153.994 E97.59594
G1 X158.899 Y153.924
G0 F4800 X158.829 Y153.428
G1 F1500 X150.929 Y161.329 E97.96756
G1 X150.859 Y161.399
G0 F4800 X150.363 Y161.329
G1 F1500 X158.829 Y152.863 E98.36577
G1 X158.899 Y152.793
G0 F4800 X158.829 Y152.297
G1 F1500 X149.797 Y161.329 E98.79061
G1 X149.727 Y161.399
G0 F4800 X149.232 Y161.329
G1 F1500 X158.829 Y151.731 E99.24205
G1 X158.899 Y151.661
G0 F4800 X158.829 Y151.165
G1 F1500 X148.666 Y161.329 E99.72011
G1 X148.596 Y161.399
G0 F4800 X148.1 Y161.329
G1 F1500 X158.829 Y150.6 E100.22477
G1 X158.899 Y150.53
G0 F4800 X158.829 Y150.034
G1 F1500 X147.535 Y161.329 E100.75602
G1 X147.465 Y161.399
G0 F4800 X146.969 Y161.329
G1 F1500 X158.829 Y149.468 E101.31391
G1 X158.899 Y149.398
G0 F4800 X158.829 Y148.903
G1 F1500 X146.403 Y161.329 E101.89839
G1 X146.333 Y161.399
G0 F4800 X145.837 Y161.329
G1 F1500 X158.829 Y148.337 E102.50949
G1 X158.899 Y148.267
G0 F4800 X158.829 Y147.771
G1 F1500 X145.272 Y161.329 E103.14719
G1 X145.202 Y161.399
G0 F4800 X144.706 Y161.329
G1 F1500 X158.829 Y147.206 E103.8115
G1 X158.899 Y147.136
G0 F4800 X158.829 Y146.64
G1 F1500 X144.14 Y161.329 E104.50242
G1 X144.07 Y161.399
G0 F4800 X143.575 Y161.329
G1 F1500 X158.829 Y146.074 E105.21995
G1 X158.899 Y146.004
G0 F4800 X158.829 Y145.509
G1 F1500 X143.009 Y161.329 E105.96407
G1 X142.939 Y161.399
G0 F4800 X142.443 Y161.329
G1 F1500 X158.829 Y144.943 E106.73482
G1 X158.899 Y144.873
G0 F4800 X158.829 Y144.377
G1 F1500 X141.878 Y161.329 E107.53216
G1 X141.808 Y161.399
G0 F4800 X141.312 Y161.329
G1 F1500 X158.829 Y143.812 E108.35611
G1 X158.899 Y143.742
G0 F4800 X158.829 Y143.246
G1 F1500 X141.169 Y160.906 E109.18678
G1 X141.099 Y160.976
G0 F4800 X141.169 Y160.34
G1 F1500 X158.829 Y142.68 E110.01746
G1 X158.899 Y142.61
G0 F4800 X158.829 Y142.115
G1 F1500 X141.169 Y159.775 E110.84813
G1 X141.099 Y159.845
G0 F4800 X141.169 Y159.209
G1 F1500 X158.829 Y141.549 E111.6788
G1 X158.899 Y141.479
G0 F4800 X158.829 Y140.983
G1 F1500 X141.169 Y158.643 E112.50947
G1 X141.099 Y158.713
G0 F4800 X141.169 Y158.077
G1 F1500 X158.829 Y140.417 E113.34014
G1 X158.899 Y140.347
G0 F4800 X158.829 Y139.852
G1 F1500 X141.169 Y157.512 E114.17082
G1 X141.099 Y157.582
G0 F4800 X141.169 Y156.946
G1 F1500 X158.829 Y139.286 E115.00149
G1 X158.899 Y139.216
G0 F4800 X158.829 Y138.72
G1 F1500 X141.169 Y156.38 E115.83216
G1 X141.099 Y156.45
G0 F4800 X141.169 Y155.815
G1 F1500 X158.314 Y138.67 E116.63861
G1 X158.384 Y138.6
G0 F4800 X157.749 Y138.67
G1 F1500 X141.169 Y155.249 E117.41846
G1 X141.099 Y155.319
G0 F4800 X141.169 Y154.683
G1 F1500 X157.183 Y138.67 E118.17168
G1 X157.253 Y138.6
G0 F4800 X156.617 Y138.67
G1 F1500 X141.169 Y154.118 E118.89831
G1 X141.099 Y154.188
G0 F4800 X141.169 Y153.552
G1 F1500 X156.052 Y138.67 E119.59834
G1 X156.122 Y138.6
G0 F4800 X155.486 Y138.67
G1 F1500 X141.169 Y152.986 E120.27174
G1 X141.099 Y153.056
G0 F4800 X141.169 Y152.421
G1 F1500 X154.92 Y138.67 E120.91855
G1 X154.99 Y138.6
G0 F4800 X154.355 Y138.67
G1 F1500 X141.169 Y151.855 E121.53875
G1 X141.099 Y151.925
G0 F4800 X141.169 Y151.289
G1 F1500 X153.789 Y138.67 E122.13234
G1 X153.859 Y138.6
G0 F4800 X153.223 Y138.67
