; Generated with:
; "Raster 2 Laser Gcode generator for optimus"
; by 305 Engineering
;
;
;
G92 X0 Y0; set origin at current position
;G21; Set units to millimeters
;G90; Use absolute coordinates
;G92; Coordinate Offset
M107 P01;Laser off
G00 X15.0 Y20.8
M106 P01 S180
G01 X16.6 Y20.8 F500
M107 P01
G00 X18.4 Y20.8
M106 P01 S180
G01 X18.6 Y20.8 F500
M107 P01
G00 X21.0 Y20.8
M106 P01 S180
G01 X21.4 Y20.8 F500
M107 P01
G00 X23.4 Y20.8
M106 P01 S180
G01 X25.2 Y20.8 F500
M107 P01
G00 X26.0 Y20.8
M106 P01 S180
G01 X27.8 Y20.8 F500
M107 P01
G00 X29.4 Y20.8
M106 P01 S180
G01 X29.8 Y20.8 F500
M107 P01
G00 X31.6 Y20.8
M106 P01 S180
G01 X33.0 Y20.8 F500
M107 P01
G00 X34.2 Y20.8
M106 P01 S180
G01 X34.6 Y20.8 F500
M107 P01
G00 X34.6 Y21.0
M106 P01 S180
G01 X34.2 Y21.0 F500
M107 P01
G00 X33.2 Y21.0
M106 P01 S180
G01 X31.4 Y21.0 F500
M107 P01
G00 X29.8 Y21.0
M106 P01 S180
G01 X29.4 Y21.0 F500
M107 P01
G00 X28.0 Y21.0
M106 P01 S180
G01 X26.0 Y21.0 F500
M107 P01
G00 X25.2 Y21.0
M106 P01 S180
G01 X23.4 Y21.0 F500
M107 P01
G00 X21.4 Y21.0
M106 P01 S180
G01 X21.0 Y21.0 F500
M107 P01
G00 X18.6 Y21.0
M106 P01 S180
G01 X18.2 Y21.0 F500
M107 P01
G00 X16.8 Y21.0
M106 P01 S180
G01 X14.8 Y21.0 F500
M107 P01
G00 X14.8 Y21.2
M106 P01 S180
G01 X15.2 Y21.2 F500
M107 P01
G00 X16.4 Y21.2
M106 P01 S180
G01 X16.8 Y21.2 F500
M107 P01
G00 X18.2 Y21.2
M106 P01 S180
G01 X18.6 Y21.2 F500
M107 P01
G00 X21.0 Y21.2
M106 P01 S180
G01 X21.4 Y21.2 F500
M107 P01
G00 X23.4 Y21.2
M106 P01 S180
G01 X23.8 Y21.2 F500
M107 P01
G00 X26.0 Y21.2
M106 P01 S180
G01 X26.4 Y21.2 F500
M107 P01
G00 X27.6 Y21.2
M106 P01 S180
G01 X28.0 Y21.2 F500
M107 P01
G00 X29.4 Y21.2
M106 P01 S180
G01 X29.8 Y21.2 F500
M107 P01
G00 X31.2 Y21.2
M106 P01 S180
G01 X31.6 Y21.2 F500
M107 P01
G00 X32.8 Y21.2
M106 P01 S180
G01 X33.4 Y21.2 F500
M107 P01
G00 X34.2 Y21.2
M106 P01 S180
G01 X34.6 Y21.2 F500
M107 P01
G00 X34.6 Y21.4
M106 P01 S180
G01 X34.2 Y21.4 F500
M107 P01
G00 X33.4 Y21.4
M106 P01 S180
G01 X33.0 Y21.4 F500
M107 P01
G00 X31.6 Y21.4
M106 P01 S180
G01 X31.2 Y21.4 F500
M107 P01
G00 X29.8 Y21.4
M106 P01 S180
G01 X29.4 Y21.4 F500
M107 P01
G00 X28.0 Y21.4
M106 P01 S180
G01 X27.8 Y21.4 F500
M107 P01
G00 X26.4 Y21.4
M106 P01 S180
G01 X26.0 Y21.4 F500
M107 P01
G00 X23.8 Y21.4
M106 P01 S180
G01 X23.4 Y21.4 F500
M107 P01
G00 X21.4 Y21.4
M106 P01 S180
G01 X21.0 Y21.4 F500
M107 P01
G00 X18.6 Y21.4
M106 P01 S180
G01 X18.2 Y21.4 F500
M107 P01
G00 X17.0 Y21.4
M106 P01 S180
G01 X16.6 Y21.4 F500
M107 P01
G00 X15.2 Y21.4
M106 P01 S180
G01 X14.8 Y21.4 F500
M107 P01
G00 X14.8 Y21.6
M106 P01 S180
G01 X15.2 Y21.6 F500
M107 P01
G00 X16.6 Y21.6
M106 P01 S180
G01 X17.0 Y21.6 F500
M107 P01
G00 X18.2 Y21.6
M106 P01 S180
G01 X18.6 Y21.6 F500
M107 P01
G00 X21.0 Y21.6
M106 P01 S180
G01 X21.4 Y21.6 F500
M107 P01
G00 X23.4 Y21.6
M106 P01 S180
G01 X23.8 Y21.6 F500
M107 P01
G00 X26.0 Y21.6
M106 P01 S180
G01 X26.4 Y21.6 F500
M107 P01
G00 X27.6 Y21.6
M106 P01 S180
G01 X28.0 Y21.6 F500
M107 P01
G00 X29.4 Y21.6
M106 P01 S180
G01 X29.8 Y21.6 F500
M107 P01
G00 X31.0 Y21.6
M106 P01 S180
G01 X31.4 Y21.6 F500
M107 P01
G00 X33.2 Y21.6
M106 P01 S180
G01 X33.4 Y21.6 F500
M107 P01
G00 X34.2 Y21.6
M106 P01 S180
G01 X34.6 Y21.6 F500
M107 P01
G00 X35.6 Y21.8
M106 P01 S180
G01 X34.2 Y21.8 F500
M107 P01
G00 X33.4 Y21.8
M106 P01 S180
G01 X33.2 Y21.8 F500
M107 P01
G00 X31.4 Y21.8
M106 P01 S180
G01 X31.0 Y21.8 F500
M107 P01
G00 X29.8 Y21.8
M106 P01 S180
G01 X29.4 Y21.8 F500
M107 P01
G00 X28.0 Y21.8
M106 P01 S180
G01 X27.6 Y21.8 F500
M107 P01
G00 X26.4 Y21.8
M106 P01 S180
G01 X26.0 Y21.8 F500
M107 P01
G00 X23.8 Y21.8
M106 P01 S180
G01 X23.4 Y21.8 F500
M107 P01
G00 X21.4 Y21.8
M106 P01 S180
G01 X21.0 Y21.8 F500
M107 P01
G00 X18.6 Y21.8
M106 P01 S180
G01 X18.2 Y21.8 F500
M107 P01
G00 X16.8 Y21.8
M106 P01 S180
G01 X16.4 Y21.8 F500
M107 P01
G00 X15.2 Y21.8
M106 P01 S180
G01 X14.8 Y21.8 F500
M107 P01
G00 X14.8 Y22.0
M106 P01 S180
G01 X16.6 Y22.0 F500
M107 P01
G00 X18.2 Y22.0
M106 P01 S180
G01 X18.8 Y22.0 F500
M107 P01
G00 X21.0 Y22.0
M106 P01 S180
G01 X22.6 Y22.0 F500
M107 P01
G00 X23.4 Y22.0
M106 P01 S180
G01 X25.2 Y22.0 F500
M107 P01
G00 X26.0 Y22.0
M106 P01 S180
G01 X27.8 Y22.0 F500
M107 P01
G00 X29.4 Y22.0
M106 P01 S180
G01 X29.8 Y22.0 F500
M107 P01
G00 X31.0 Y22.0
M106 P01 S180
G01 X31.4 Y22.0 F500
M107 P01
G00 X33.2 Y22.0
M106 P01 S180
G01 X33.6 Y22.0 F500
M107 P01
G00 X34.2 Y22.0
M106 P01 S180
G01 X36.0 Y22.0 F500
M107 P01
G00 X36.0 Y22.2
M106 P01 S180
G01 X35.6 Y22.2 F500
M107 P01
G00 X34.6 Y22.2
M106 P01 S180
G01 X34.2 Y22.2 F500
M107 P01
G00 X33.4 Y22.2
M106 P01 S180
G01 X33.2 Y22.2 F500
M107 P01
G00 X31.4 Y22.2
M106 P01 S180
G01 X31.0 Y22.2 F500
M107 P01
G00 X29.8 Y22.2
M106 P01 S180
G01 X29.4 Y22.2 F500
M107 P01
G00 X27.6 Y22.2
M106 P01 S180
G01 X26.0 Y22.2 F500
M107 P01
G00 X25.0 Y22.2
M106 P01 S180
G01 X23.4 Y22.2 F500
M107 P01
G00 X22.4 Y22.2
M106 P01 S180
G01 X21.0 Y22.2 F500
M107 P01
G00 X18.8 Y22.2
M106 P01 S180
G01 X18.0 Y22.2 F500
M107 P01
G00 X16.6 Y22.2
M106 P01 S180
G01 X14.8 Y22.2 F500
M107 P01
G00 X14.8 Y22.4
M106 P01 S180
G01 X15.2 Y22.4 F500
M107 P01
G00 X16.4 Y22.4
M106 P01 S180
G01 X16.8 Y22.4 F500
M107 P01
G00 X18.0 Y22.4
M106 P01 S180
G01 X18.2 Y22.4 F500
M107 P01
G00 X18.6 Y22.4
M106 P01 S180
G01 X19.0 Y22.4 F500
M107 P01
G00 X21.0 Y22.4
M106 P01 S180
G01 X21.4 Y22.4 F500
M107 P01
G00 X23.4 Y22.4
M106 P01 S180
G01 X23.8 Y22.4 F500
M107 P01
G00 X26.0 Y22.4
M106 P01 S180
G01 X26.4 Y22.4 F500
M107 P01
G00 X27.6 Y22.4
M106 P01 S180
G01 X27.8 Y22.4 F500
M107 P01
G00 X29.4 Y22.4
M106 P01 S180
G01 X29.8 Y22.4 F500
M107 P01
G00 X31.0 Y22.4
M106 P01 S180
G01 X31.4 Y22.4 F500
M107 P01
G00 X33.2 Y22.4
M106 P01 S180
G01 X33.4 Y22.4 F500
M107 P01
G00 X34.2 Y22.4
M106 P01 S180
G01 X34.6 Y22.4 F500
M107 P01
G00 X35.8 Y22.4
M106 P01 S180
G01 X36.0 Y22.4 F500
M107 P01
G00 X36.2 Y22.6
M106 P01 S180
G01 X35.8 Y22.6 F500
M107 P01
G00 X34.6 Y22.6
M106 P01 S180
G01 X34.2 Y22.6 F500
M107 P01
G00 X33.4 Y22.6
M106 P01 S180
G01 X33.0 Y22.6 F500
M107 P01
G00 X31.4 Y22.6
M106 P01 S180
G01 X31.2 Y22.6 F500
M107 P01
G00 X29.8 Y22.6
M106 P01 S180
G01 X29.4 Y22.6 F500
M107 P01
G00 X28.0 Y22.6
M106 P01 S180
G01 X27.6 Y22.6 F500
M107 P01
G00 X26.4 Y22.6
M106 P01 S180
G01 X26.0 Y22.6 F500
M107 P01
G00 X23.8 Y22.6
M106 P01 S180
G01 X23.4 Y22.6 F500
M107 P01
G00 X21.4 Y22.6
M106 P01 S180
G01 X21.0 Y22.6 F500
M107 P01
G00 X19.2 Y22.6
M106 P01 S180
G01 X18.8 Y22.6 F500
M107 P01
G00 X18.2 Y22.6
M106 P01 S180
G01 X17.8 Y22.6 F500
M107 P01
G00 X16.8 Y22.6
M106 P01 S180
G01 X16.4 Y22.6 F500
M107 P01
G00 X15.2 Y22.6
M106 P01 S180
G01 X14.8 Y22.6 F500
M107 P01
G00 X14.8 Y22.8
M106 P01 S180
G01 X15.2 Y22.8 F500
M107 P01
G00 X16.4 Y22.8
M106 P01 S180
G01 X16.8 Y22.8 F500
M107 P01
G00 X17.6 Y22.8
M106 P01 S180
G01 X18.0 Y22.8 F500
M107 P01
G00 X18.8 Y22.8
M106 P01 S180
G01 X19.2 Y22.8 F500
M107 P01
G00 X21.0 Y22.8
M106 P01 S180
G01 X21.4 Y22.8 F500
M107 P01
G00 X23.4 Y22.8
M106 P01 S180
G01 X23.8 Y22.8 F500
M107 P01
G00 X26.0 Y22.8
M106 P01 S180
G01 X26.4 Y22.8 F500
M107 P01
G00 X27.6 Y22.8
M106 P01 S180
G01 X28.0 Y22.8 F500
M107 P01
G00 X29.4 Y22.8
M106 P01 S180
G01 X29.8 Y22.8 F500
M107 P01
G00 X31.2 Y22.8
M106 P01 S180
G01 X31.6 Y22.8 F500
M107 P01
G00 X33.0 Y22.8
M106 P01 S180
G01 X33.4 Y22.8 F500
M107 P01
G00 X34.2 Y22.8
M106 P01 S180
G01 X34.6 Y22.8 F500
M107 P01
G00 X35.8 Y22.8
M106 P01 S180
G01 X36.0 Y22.8 F500
M107 P01
G00 X36.0 Y23.0
M106 P01 S180
G01 X35.4 Y23.0 F500
M107 P01
G00 X34.6 Y23.0
M106 P01 S180
G01 X34.2 Y23.0 F500
M107 P01
G00 X33.2 Y23.0
M106 P01 S180
G01 X32.6 Y23.0 F500
M107 P01
G00 X32.0 Y23.0
M106 P01 S180
G01 X31.4 Y23.0 F500
M107 P01
G00 X30.4 Y23.0
M106 P01 S180
G01 X28.6 Y23.0 F500
M107 P01
G00 X27.8 Y23.0
M106 P01 S180
G01 X27.2 Y23.0 F500
M107 P01
G00 X26.4 Y23.0
M106 P01 S180
G01 X26.0 Y23.0 F500
M107 P01
G00 X23.8 Y23.0
M106 P01 S180
G01 X23.4 Y23.0 F500
M107 P01
G00 X21.4 Y23.0
M106 P01 S180
G01 X21.0 Y23.0 F500
M107 P01
G00 X19.4 Y23.0
M106 P01 S180
G01 X19.0 Y23.0 F500
M107 P01
G00 X18.0 Y23.0
M106 P01 S180
G01 X17.6 Y23.0 F500
M107 P01
G00 X16.8 Y23.0
M106 P01 S180
G01 X16.0 Y23.0 F500
M107 P01
G00 X15.2 Y23.0
M106 P01 S180
G01 X14.8 Y23.0 F500
M107 P01
G00 X14.8 Y23.2
M106 P01 S180
G01 X16.6 Y23.2 F500
M107 P01
G00 X17.4 Y23.2
M106 P01 S180
G01 X17.8 Y23.2 F500
M107 P01
G00 X19.2 Y23.2
M106 P01 S180
G01 X19.4 Y23.2 F500
M107 P01
G00 X21.0 Y23.2
M106 P01 S180
G01 X22.8 Y23.2 F500
M107 P01
G00 X23.4 Y23.2
M106 P01 S180
G01 X25.2 Y23.2 F500
M107 P01
G00 X26.0 Y23.2
M106 P01 S180
G01 X27.8 Y23.2 F500
M107 P01
G00 X28.6 Y23.2
M106 P01 S180
G01 X30.6 Y23.2 F500
M107 P01
G00 X31.6 Y23.2
M106 P01 S180
G01 X33.0 Y23.2 F500
M107 P01
G00 X34.2 Y23.2
M106 P01 S180
G01 X35.8 Y23.2 F500
M107 P01
G00 X32.6 Y23.4
M106 P01 S180
G01 X32.0 Y23.4 F500
M107 P01
G00 X19.4 Y23.4
M106 P01 S180
G01 X19.4 Y23.4 F500
M107 P01
G00 X17.6 Y23.4
M106 P01 S180
G01 X17.6 Y23.4 F500
M107 P01
G00 X40.8 Y26.6
M106 P01 S180
G01 X40.0 Y26.6 F500
M107 P01
G00 X36.6 Y26.6
M106 P01 S180
G01 X36.4 Y26.6 F500
M107 P01
G00 X32.8 Y26.6
M106 P01 S180
G01 X32.6 Y26.6 F500
M107 P01
G00 X30.2 Y26.6
M106 P01 S180
G01 X29.8 Y26.6 F500
M107 P01
G00 X26.2 Y26.6
M106 P01 S180
G01 X26.0 Y26.6 F500
M107 P01
G00 X24.2 Y26.6
M106 P01 S180
G01 X24.0 Y26.6 F500
M107 P01
G00 X19.8 Y26.6
M106 P01 S180
G01 X19.6 Y26.6 F500
M107 P01
G00 X17.6 Y26.6
M106 P01 S180
G01 X17.4 Y26.6 F500
M107 P01
G00 X13.8 Y26.6
M106 P01 S180
G01 X13.6 Y26.6 F500
M107 P01
G00 X9.8 Y26.6
M106 P01 S180
G01 X9.6 Y26.6 F500
M107 P01
G00 X9.4 Y26.8
M106 P01 S180
G01 X10.0 Y26.8 F500
M107 P01
G00 X13.2 Y26.8
M106 P01 S180
G01 X14.0 Y26.8 F500
M107 P01
G00 X17.2 Y26.8
M106 P01 S180
G01 X18.0 Y26.8 F500
M107 P01
G00 X19.2 Y26.8
M106 P01 S180
G01 X20.0 Y26.8 F500
M107 P01
G00 X23.8 Y26.8
M106 P01 S180
G01 X24.4 Y26.8 F500
M107 P01
G00 X25.8 Y26.8
M106 P01 S180
G01 X26.4 Y26.8 F500
M107 P01
G00 X29.6 Y26.8
M106 P01 S180
G01 X30.4 Y26.8 F500
M107 P01
G00 X32.2 Y26.8
M106 P01 S180
G01 X33.0 Y26.8 F500
M107 P01
G00 X36.2 Y26.8
M106 P01 S180
G01 X37.0 Y26.8 F500
M107 P01
G00 X39.2 Y26.8
M106 P01 S180
G01 X41.6 Y26.8 F500
M107 P01
G00 X42.0 Y27.0
M106 P01 S180
G01 X39.0 Y27.0 F500
M107 P01
G00 X37.0 Y27.0
M106 P01 S180
G01 X36.0 Y27.0 F500
M107 P01
G00 X33.0 Y27.0
M106 P01 S180
G01 X32.2 Y27.0 F500
M107 P01
G00 X30.4 Y27.0
M106 P01 S180
G01 X29.4 Y27.0 F500
M107 P01
G00 X26.6 Y27.0
M106 P01 S180
G01 X25.8 Y27.0 F500
M107 P01
G00 X24.6 Y27.0
M106 P01 S180
G01 X23.6 Y27.0 F500
M107 P01
G00 X20.0 Y27.0
M106 P01 S180
G01 X19.2 Y27.0 F500
M107 P01
G00 X18.0 Y27.0
M106 P01 S180
G01 X17.0 Y27.0 F500
M107 P01
G00 X14.2 Y27.0
M106 P01 S180
G01 X13.2 Y27.0 F500
M107 P01
G00 X10.2 Y27.0
M106 P01 S180
G01 X9.2 Y27.0 F500
M107 P01
G00 X9.2 Y27.2
M106 P01 S180
G01 X10.2 Y27.2 F500
M107 P01
G00 X13.2 Y27.2
M106 P01 S180
G01 X14.2 Y27.2 F500
M107 P01
G00 X17.0 Y27.2
M106 P01 S180
G01 X18.0 Y27.2 F500
M107 P01
G00 X19.2 Y27.2
M106 P01 S180
G01 X20.2 Y27.2 F500
M107 P01
G00 X23.6 Y27.2
M106 P01 S180
G01 X24.6 Y27.2 F500
M107 P01
G00 X25.6 Y27.2
M106 P01 S180
G01 X26.6 Y27.2 F500
M107 P01
G00 X29.2 Y27.2
M106 P01 S180
G01 X30.6 Y27.2 F500
M107 P01
G00 X32.2 Y27.2
M106 P01 S180
G01 X33.0 Y27.2 F500
M107 P01
G00 X35.8 Y27.2
M106 P01 S180
G01 X37.0 Y27.2 F500
M107 P01
G00 X38.6 Y27.2
M106 P01 S180
G01 X42.2 Y27.2 F500
M107 P01
G00 X42.4 Y27.4
M106 P01 S180
G01 X38.6 Y27.4 F500
M107 P01
G00 X37.0 Y27.4
M106 P01 S180
G01 X35.8 Y27.4 F500
M107 P01
G00 X33.2 Y27.4
M106 P01 S180
G01 X32.2 Y27.4 F500
M107 P01
G00 X30.6 Y27.4
M106 P01 S180
G01 X29.0 Y27.4 F500
M107 P01
G00 X26.6 Y27.4
M106 P01 S180
G01 X25.6 Y27.4 F500
M107 P01
G00 X24.4 Y27.4
M106 P01 S180
G01 X23.4 Y27.4 F500
M107 P01
G00 X20.2 Y27.4
M106 P01 S180
G01 X19.2 Y27.4 F500
M107 P01
G00 X18.0 Y27.4
M106 P01 S180
G01 X17.0 Y27.4 F500
M107 P01
G00 X14.2 Y27.4
M106 P01 S180
G01 X13.2 Y27.4 F500
M107 P01
G00 X10.2 Y27.4
M106 P01 S180
G01 X9.2 Y27.4 F500
M107 P01
G00 X9.2 Y27.6
M106 P01 S180
G01 X10.2 Y27.6 F500
M107 P01
G00 X13.2 Y27.6
M106 P01 S180
G01 X14.2 Y27.6 F500
M107 P01
G00 X17.0 Y27.6
M106 P01 S180
G01 X18.0 Y27.6 F500
M107 P01
G00 X19.2 Y27.6
M106 P01 S180
G01 X20.2 Y27.6 F500
M107 P01
G00 X23.4 Y27.6
M106 P01 S180
G01 X24.4 Y27.6 F500
M107 P01
G00 X25.6 Y27.6
M106 P01 S180
G01 X26.6 Y27.6 F500
M107 P01
G00 X29.0 Y27.6
M106 P01 S180
G01 X30.6 Y27.6 F500
M107 P01
G00 X32.2 Y27.6
M106 P01 S180
G01 X33.2 Y27.6 F500
M107 P01
G00 X35.6 Y27.6
M106 P01 S180
G01 X36.8 Y27.6 F500
M107 P01
G00 X38.4 Y27.6
M106 P01 S180
G01 X39.6 Y27.6 F500
M107 P01
G00 X41.2 Y27.6
M106 P01 S180
G01 X42.6 Y27.6 F500
M107 P01
G00 X42.6 Y27.8
M106 P01 S180
G01 X41.6 Y27.8 F500
M107 P01
G00 X39.4 Y27.8
M106 P01 S180
G01 X38.2 Y27.8 F500
M107 P01
G00 X36.8 Y27.8
M106 P01 S180
G01 X35.4 Y27.8 F500
M107 P01
G00 X33.2 Y27.8
M106 P01 S180
G01 X32.2 Y27.8 F500
M107 P01
G00 X30.6 Y27.8
M106 P01 S180
G01 X28.8 Y27.8 F500
M107 P01
G00 X26.6 Y27.8
M106 P01 S180
G01 X25.6 Y27.8 F500
M107 P01
G00 X24.4 Y27.8
M106 P01 S180
G01 X23.2 Y27.8 F500
M107 P01
G00 X20.4 Y27.8
M106 P01 S180
G01 X19.4 Y27.8 F500
M107 P01
G00 X18.0 Y27.8
M106 P01 S180
G01 X17.0 Y27.8 F500
M107 P01
G00 X14.2 Y27.8
M106 P01 S180
G01 X13.2 Y27.8 F500
M107 P01
G00 X10.2 Y27.8
M106 P01 S180
G01 X9.2 Y27.8 F500
M107 P01
G00 X9.2 Y28.0
M106 P01 S180
G01 X10.2 Y28.0 F500
M107 P01
G00 X13.2 Y28.0
M106 P01 S180
G01 X14.2 Y28.0 F500
M107 P01
G00 X17.0 Y28.0
M106 P01 S180
G01 X18.0 Y28.0 F500
M107 P01
G00 X19.4 Y28.0
M106 P01 S180
G01 X20.4 Y28.0 F500
M107 P01
G00 X23.2 Y28.0
M106 P01 S180
G01 X24.2 Y28.0 F500
M107 P01
G00 X25.6 Y28.0
M106 P01 S180
G01 X26.6 Y28.0 F500
M107 P01
G00 X28.6 Y28.0
M106 P01 S180
G01 X30.6 Y28.0 F500
M107 P01
G00 X32.2 Y28.0
M106 P01 S180
G01 X33.2 Y28.0 F500
M107 P01
G00 X35.4 Y28.0
M106 P01 S180
G01 X36.6 Y28.0 F500
M107 P01
G00 X38.2 Y28.0
M106 P01 S180
G01 X39.2 Y28.0 F500
M107 P01
G00 X41.6 Y28.0
M106 P01 S180
G01 X42.6 Y28.0 F500
M107 P01
G00 X42.8 Y28.2
M106 P01 S180
G01 X41.8 Y28.2 F500
M107 P01
G00 X39.2 Y28.2
M106 P01 S180
G01 X38.2 Y28.2 F500
M107 P01
G00 X36.4 Y28.2
M106 P01 S180
G01 X35.2 Y28.2 F500
M107 P01
G00 X33.2 Y28.2
M106 P01 S180
G01 X32.2 Y28.2 F500
M107 P01
G00 X30.6 Y28.2
M106 P01 S180
G01 X28.6 Y28.2 F500
M107 P01
G00 X26.6 Y28.2
M106 P01 S180
G01 X25.6 Y28.2 F500
M107 P01
G00 X24.2 Y28.2
M106 P01 S180
G01 X19.6 Y28.2 F500
M107 P01
G00 X18.0 Y28.2
M106 P01 S180
G01 X17.0 Y28.2 F500
M107 P01
G00 X14.2 Y28.2
M106 P01 S180
G01 X13.2 Y28.2 F500
M107 P01
G00 X10.2 Y28.2
M106 P01 S180
G01 X9.2 Y28.2 F500
M107 P01
G00 X9.2 Y28.4
M106 P01 S180
G01 X10.2 Y28.4 F500
M107 P01
G00 X13.2 Y28.4
M106 P01 S180
G01 X14.2 Y28.4 F500
M107 P01
G00 X17.0 Y28.4
M106 P01 S180
G01 X18.0 Y28.4 F500
M107 P01
G00 X19.6 Y28.4
M106 P01 S180
G01 X24.0 Y28.4 F500
M107 P01
G00 X25.6 Y28.4
M106 P01 S180
G01 X26.6 Y28.4 F500
M107 P01
G00 X28.4 Y28.4
M106 P01 S180
G01 X30.6 Y28.4 F500
M107 P01
G00 X32.2 Y28.4
M106 P01 S180
G01 X33.2 Y28.4 F500
M107 P01
G00 X35.0 Y28.4
M106 P01 S180
G01 X36.2 Y28.4 F500
M107 P01
G00 X38.2 Y28.4
M106 P01 S180
G01 X39.0 Y28.4 F500
M107 P01
G00 X41.8 Y28.4
M106 P01 S180
G01 X42.8 Y28.4 F500
M107 P01
G00 X42.8 Y28.6
M106 P01 S180
G01 X41.8 Y28.6 F500
M107 P01
G00 X39.0 Y28.6
M106 P01 S180
G01 X38.2 Y28.6 F500
M107 P01
G00 X36.2 Y28.6
M106 P01 S180
G01 X35.0 Y28.6 F500
M107 P01
G00 X33.2 Y28.6
M106 P01 S180
G01 X32.2 Y28.6 F500
M107 P01
G00 X30.6 Y28.6
M106 P01 S180
G01 X28.2 Y28.6 F500
M107 P01
G00 X26.6 Y28.6
M106 P01 S180
G01 X25.6 Y28.6 F500
M107 P01
G00 X24.0 Y28.6
M106 P01 S180
G01 X19.6 Y28.6 F500
M107 P01
G00 X18.0 Y28.6
M106 P01 S180
G01 X17.0 Y28.6 F500
M107 P01
G00 X14.2 Y28.6
M106 P01 S180
G01 X13.2 Y28.6 F500
M107 P01
G00 X10.2 Y28.6
M106 P01 S180
G01 X9.2 Y28.6 F500
M107 P01
G00 X9.2 Y28.8
M106 P01 S180
G01 X10.2 Y28.8 F500
M107 P01
G00 X13.2 Y28.8
M106 P01 S180
G01 X14.2 Y28.8 F500
M107 P01
G00 X17.0 Y28.8
M106 P01 S180
G01 X18.0 Y28.8 F500
M107 P01
G00 X19.8 Y28.8
M106 P01 S180
G01 X24.0 Y28.8 F500
M107 P01
G00 X25.6 Y28.8
M106 P01 S180
G01 X26.6 Y28.8 F500
M107 P01
G00 X28.2 Y28.8
M106 P01 S180
G01 X29.2 Y28.8 F500
M107 P01
G00 X29.6 Y28.8
M106 P01 S180
G01 X30.6 Y28.8 F500
M107 P01
G00 X32.2 Y28.8
M106 P01 S180
G01 X33.4 Y28.8 F500
M107 P01
G00 X34.8 Y28.8
M106 P01 S180
G01 X36.0 Y28.8 F500
M107 P01
G00 X38.4 Y28.8
M106 P01 S180
G01 X38.6 Y28.8 F500
M107 P01
G00 X41.6 Y28.8
M106 P01 S180
G01 X42.8 Y28.8 F500
M107 P01
G00 X42.6 Y29.0
M106 P01 S180
G01 X41.4 Y29.0 F500
M107 P01
G00 X35.8 Y29.0
M106 P01 S180
G01 X34.6 Y29.0 F500
M107 P01
G00 X33.6 Y29.0
M106 P01 S180
G01 X32.2 Y29.0 F500
M107 P01
G00 X30.6 Y29.0
M106 P01 S180
G01 X29.6 Y29.0 F500
M107 P01
G00 X29.0 Y29.0
M106 P01 S180
G01 X28.0 Y29.0 F500
M107 P01
G00 X26.6 Y29.0
M106 P01 S180
G01 X25.6 Y29.0 F500
M107 P01
G00 X23.8 Y29.0
M106 P01 S180
G01 X22.8 Y29.0 F500
M107 P01
G00 X20.8 Y29.0
M106 P01 S180
G01 X19.8 Y29.0 F500
M107 P01
G00 X18.0 Y29.0
M106 P01 S180
G01 X17.0 Y29.0 F500
M107 P01
G00 X14.2 Y29.0
M106 P01 S180
G01 X13.2 Y29.0 F500
M107 P01
G00 X10.2 Y29.0
M106 P01 S180
G01 X9.2 Y29.0 F500
M107 P01
G00 X9.2 Y29.2
M106 P01 S180
G01 X10.2 Y29.2 F500
M107 P01
G00 X13.2 Y29.2
M106 P01 S180
G01 X14.2 Y29.2 F500
M107 P01
G00 X17.0 Y29.2
M106 P01 S180
G01 X18.0 Y29.2 F500
M107 P01
G00 X20.0 Y29.2
M106 P01 S180
G01 X20.8 Y29.2 F500
M107 P01
G00 X22.8 Y29.2
M106 P01 S180
G01 X23.8 Y29.2 F500
M107 P01
G00 X25.6 Y29.2
M106 P01 S180
G01 X26.6 Y29.2 F500
M107 P01
G00 X27.8 Y29.2
M106 P01 S180
G01 X29.0 Y29.2 F500
M107 P01
G00 X29.6 Y29.2
M106 P01 S180
G01 X30.6 Y29.2 F500
M107 P01
G00 X32.2 Y29.2
M106 P01 S180
G01 X33.8 Y29.2 F500
M107 P01
G00 X34.6 Y29.2
M106 P01 S180
G01 X35.8 Y29.2 F500
M107 P01
G00 X40.8 Y29.2
M106 P01 S180
G01 X42.6 Y29.2 F500
M107 P01
G00 X42.4 Y29.4
M106 P01 S180
G01 X40.0 Y29.4 F500
M107 P01
G00 X35.6 Y29.4
M106 P01 S180
G01 X34.4 Y29.4 F500
M107 P01
G00 X34.0 Y29.4
M106 P01 S180
G01 X32.2 Y29.4 F500
M107 P01
G00 X30.6 Y29.4
M106 P01 S180
G01 X29.6 Y29.4 F500
M107 P01
G00 X28.8 Y29.4
M106 P01 S180
G01 X27.8 Y29.4 F500
M107 P01
G00 X26.6 Y29.4
M106 P01 S180
G01 X25.6 Y29.4 F500
M107 P01
G00 X23.6 Y29.4
M106 P01 S180
G01 X22.8 Y29.4 F500
M107 P01
G00 X21.0 Y29.4
M106 P01 S180
G01 X20.0 Y29.4 F500
M107 P01
G00 X18.0 Y29.4
M106 P01 S180
G01 X13.2 Y29.4 F500
M107 P01
G00 X10.2 Y29.4
M106 P01 S180
G01 X9.2 Y29.4 F500
M107 P01
G00 X9.2 Y29.6
M106 P01 S180
G01 X10.2 Y29.6 F500
M107 P01
G00 X13.2 Y29.6
M106 P01 S180
G01 X18.0 Y29.6 F500
M107 P01
G00 X20.0 Y29.6
M106 P01 S180
G01 X21.0 Y29.6 F500
M107 P01
G00 X22.6 Y29.6
M106 P01 S180
G01 X23.6 Y29.6 F500
M107 P01
G00 X25.6 Y29.6
M106 P01 S180
G01 X26.6 Y29.6 F500
M107 P01
G00 X27.6 Y29.6
M106 P01 S180
G01 X28.6 Y29.6 F500
M107 P01
G00 X29.6 Y29.6
M106 P01 S180
G01 X30.6 Y29.6 F500
M107 P01
G00 X32.2 Y29.6
M106 P01 S180
G01 X35.4 Y29.6 F500
M107 P01
G00 X39.4 Y29.6
M106 P01 S180
G01 X42.2 Y29.6 F500
M107 P01
G00 X42.0 Y29.8
M106 P01 S180
G01 X39.0 Y29.8 F500
M107 P01
G00 X35.4 Y29.8
M106 P01 S180
G01 X32.2 Y29.8 F500
M107 P01
G00 X30.6 Y29.8
M106 P01 S180
G01 X29.6 Y29.8 F500
M107 P01
G00 X28.6 Y29.8
M106 P01 S180
G01 X27.4 Y29.8 F500
M107 P01
G00 X26.6 Y29.8
M106 P01 S180
G01 X25.6 Y29.8 F500
M107 P01
G00 X23.6 Y29.8
M106 P01 S180
G01 X22.6 Y29.8 F500
M107 P01
G00 X21.0 Y29.8
M106 P01 S180
G01 X20.2 Y29.8 F500
M107 P01
G00 X18.0 Y29.8
M106 P01 S180
G01 X13.2 Y29.8 F500
M107 P01
G00 X10.2 Y29.8
M106 P01 S180
G01 X9.2 Y29.8 F500
M107 P01
G00 X9.2 Y30.0
M106 P01 S180
G01 X10.2 Y30.0 F500
M107 P01
G00 X13.2 Y30.0
M106 P01 S180
G01 X18.0 Y30.0 F500
M107 P01
G00 X20.2 Y30.0
M106 P01 S180
G01 X21.2 Y30.0 F500
M107 P01
G00 X22.4 Y30.0
M106 P01 S180
G01 X23.4 Y30.0 F500
M107 P01
G00 X25.6 Y30.0
M106 P01 S180
G01 X26.6 Y30.0 F500
M107 P01
G00 X27.4 Y30.0
M106 P01 S180
G01 X28.4 Y30.0 F500
M107 P01
G00 X29.6 Y30.0
M106 P01 S180
G01 X30.6 Y30.0 F500
M107 P01
G00 X32.2 Y30.0
M106 P01 S180
G01 X35.2 Y30.0 F500
M107 P01
G00 X38.8 Y30.0
M106 P01 S180
G01 X41.6 Y30.0 F500
M107 P01
G00 X41.0 Y30.2
M106 P01 S180
G01 X38.6 Y30.2 F500
M107 P01
G00 X35.0 Y30.2
M106 P01 S180
G01 X33.6 Y30.2 F500
M107 P01
G00 X33.2 Y30.2
M106 P01 S180
G01 X32.2 Y30.2 F500
M107 P01
G00 X30.6 Y30.2
M106 P01 S180
G01 X29.6 Y30.2 F500
M107 P01
G00 X28.2 Y30.2
M106 P01 S180
G01 X27.2 Y30.2 F500
M107 P01
G00 X26.6 Y30.2
M106 P01 S180
G01 X25.6 Y30.2 F500
M107 P01
G00 X23.4 Y30.2
M106 P01 S180
G01 X22.4 Y30.2 F500
M107 P01
G00 X21.2 Y30.2
M106 P01 S180
G01 X20.4 Y30.2 F500
M107 P01
G00 X18.0 Y30.2
M106 P01 S180
G01 X13.2 Y30.2 F500
M107 P01
G00 X10.2 Y30.2
M106 P01 S180
G01 X9.2 Y30.2 F500
M107 P01
G00 X9.2 Y30.4
M106 P01 S180
G01 X10.2 Y30.4 F500
M107 P01
G00 X13.2 Y30.4
M106 P01 S180
G01 X14.2 Y30.4 F500
M107 P01
G00 X17.0 Y30.4
M106 P01 S180
G01 X18.0 Y30.4 F500
M107 P01
G00 X20.4 Y30.4
M106 P01 S180
G01 X21.2 Y30.4 F500
M107 P01
G00 X22.4 Y30.4
M106 P01 S180
G01 X23.2 Y30.4 F500
M107 P01
G00 X25.6 Y30.4
M106 P01 S180
G01 X26.6 Y30.4 F500
M107 P01
G00 X27.0 Y30.4
M106 P01 S180
G01 X28.2 Y30.4 F500
M107 P01
G00 X29.6 Y30.4
M106 P01 S180
G01 X30.6 Y30.4 F500
M107 P01
G00 X32.2 Y30.4
M106 P01 S180
G01 X33.2 Y30.4 F500
M107 P01
G00 X33.8 Y30.4
M106 P01 S180
G01 X35.0 Y30.4 F500
M107 P01
G00 X38.4 Y30.4
M106 P01 S180
G01 X40.4 Y30.4 F500
M107 P01
G00 X39.8 Y30.6
M106 P01 S180
G01 X38.4 Y30.6 F500
M107 P01
G00 X35.2 Y30.6
M106 P01 S180
G01 X34.0 Y30.6 F500
M107 P01
G00 X33.2 Y30.6
M106 P01 S180
G01 X32.2 Y30.6 F500
M107 P01
G00 X30.6 Y30.6
M106 P01 S180
G01 X29.6 Y30.6 F500
M107 P01
G00 X28.0 Y30.6
M106 P01 S180
G01 X27.0 Y30.6 F500
M107 P01
G00 X26.6 Y30.6
M106 P01 S180
G01 X25.6 Y30.6 F500
M107 P01
G00 X23.2 Y30.6
M106 P01 S180
G01 X22.2 Y30.6 F500
M107 P01
G00 X21.4 Y30.6
M106 P01 S180
G01 X20.4 Y30.6 F500
M107 P01
G00 X18.0 Y30.6
M106 P01 S180
G01 X17.0 Y30.6 F500
M107 P01
G00 X14.2 Y30.6
M106 P01 S180
G01 X13.2 Y30.6 F500
M107 P01
G00 X10.2 Y30.6
M106 P01 S180
G01 X9.2 Y30.6 F500
M107 P01
G00 X9.2 Y30.8
M106 P01 S180
G01 X10.2 Y30.8 F500
M107 P01
G00 X13.2 Y30.8
M106 P01 S180
G01 X14.2 Y30.8 F500
M107 P01
G00 X17.0 Y30.8
M106 P01 S180
G01 X18.0 Y30.8 F500
M107 P01
G00 X20.6 Y30.8
M106 P01 S180
G01 X21.4 Y30.8 F500
M107 P01
G00 X22.2 Y30.8
M106 P01 S180
G01 X23.2 Y30.8 F500
M107 P01
G00 X25.6 Y30.8
M106 P01 S180
G01 X27.8 Y30.8 F500
M107 P01
G00 X29.6 Y30.8
M106 P01 S180
G01 X30.6 Y30.8 F500
M107 P01
G00 X32.2 Y30.8
M106 P01 S180
G01 X33.2 Y30.8 F500
M107 P01
G00 X34.2 Y30.8
M106 P01 S180
G01 X35.4 Y30.8 F500
M107 P01
G00 X38.4 Y30.8
M106 P01 S180
G01 X39.4 Y30.8 F500
M107 P01
G00 X42.0 Y30.8
M106 P01 S180
G01 X42.0 Y30.8 F500
M107 P01
G00 X42.4 Y31.0
M106 P01 S180
G01 X41.8 Y31.0 F500
M107 P01
G00 X39.2 Y31.0
M106 P01 S180
G01 X38.2 Y31.0 F500
M107 P01
G00 X35.6 Y31.0
M106 P01 S180
G01 X34.4 Y31.0 F500
M107 P01
G00 X33.2 Y31.0
M106 P01 S180
G01 X32.2 Y31.0 F500
M107 P01
G00 X30.6 Y31.0
M106 P01 S180
G01 X29.6 Y31.0 F500
M107 P01
G00 X27.8 Y31.0
M106 P01 S180
G01 X25.6 Y31.0 F500
M107 P01
G00 X23.0 Y31.0
M106 P01 S180
G01 X22.2 Y31.0 F500
M107 P01
G00 X21.6 Y31.0
M106 P01 S180
G01 X20.6 Y31.0 F500
M107 P01
G00 X18.0 Y31.0
M106 P01 S180
G01 X17.0 Y31.0 F500
M107 P01
G00 X14.2 Y31.0
M106 P01 S180
G01 X13.2 Y31.0 F500
M107 P01
G00 X10.2 Y31.0
M106 P01 S180
G01 X9.2 Y31.0 F500
M107 P01
G00 X9.2 Y31.2
M106 P01 S180
G01 X10.2 Y31.2 F500
M107 P01
G00 X13.2 Y31.2
M106 P01 S180
G01 X14.2 Y31.2 F500
M107 P01
G00 X17.0 Y31.2
M106 P01 S180
G01 X18.0 Y31.2 F500
M107 P01
G00 X20.8 Y31.2
M106 P01 S180
G01 X21.6 Y31.2 F500
M107 P01
G00 X22.0 Y31.2
M106 P01 S180
G01 X23.0 Y31.2 F500
M107 P01
G00 X25.6 Y31.2
M106 P01 S180
G01 X27.6 Y31.2 F500
M107 P01
G00 X29.6 Y31.2
M106 P01 S180
G01 X30.6 Y31.2 F500
M107 P01
G00 X32.2 Y31.2
M106 P01 S180
G01 X33.2 Y31.2 F500
M107 P01
G00 X34.6 Y31.2
M106 P01 S180
G01 X35.8 Y31.2 F500
M107 P01
G00 X38.2 Y31.2
M106 P01 S180
G01 X39.2 Y31.2 F500
M107 P01
G00 X41.6 Y31.2
M106 P01 S180
G01 X42.4 Y31.2 F500
M107 P01
G00 X42.4 Y31.4
M106 P01 S180
G01 X41.4 Y31.4 F500
M107 P01
G00 X39.2 Y31.4
M106 P01 S180
G01 X38.4 Y31.4 F500
M107 P01
G00 X36.0 Y31.4
M106 P01 S180
G01 X34.8 Y31.4 F500
M107 P01
G00 X33.2 Y31.4
M106 P01 S180
G01 X32.2 Y31.4 F500
M107 P01
G00 X30.6 Y31.4
M106 P01 S180
G01 X29.6 Y31.4 F500
M107 P01
G00 X27.4 Y31.4
M106 P01 S180
G01 X25.6 Y31.4 F500
M107 P01
G00 X22.8 Y31.4
M106 P01 S180
G01 X22.0 Y31.4 F500
M107 P01
G00 X21.6 Y31.4
M106 P01 S180
G01 X20.8 Y31.4 F500
M107 P01
G00 X18.0 Y31.4
M106 P01 S180
G01 X17.0 Y31.4 F500
M107 P01
G00 X14.2 Y31.4
M106 P01 S180
G01 X13.2 Y31.4 F500
M107 P01
G00 X10.2 Y31.4
M106 P01 S180
G01 X9.2 Y31.4 F500
M107 P01
G00 X9.2 Y31.6
M106 P01 S180
G01 X10.2 Y31.6 F500
M107 P01
G00 X13.2 Y31.6
M106 P01 S180
G01 X14.2 Y31.6 F500
M107 P01
G00 X17.0 Y31.6
M106 P01 S180
G01 X18.0 Y31.6 F500
M107 P01
G00 X20.8 Y31.6
M106 P01 S180
G01 X22.8 Y31.6 F500
M107 P01
G00 X25.6 Y31.6
M106 P01 S180
G01 X27.4 Y31.6 F500
M107 P01
G00 X29.6 Y31.6
M106 P01 S180
G01 X30.6 Y31.6 F500
M107 P01
G00 X32.2 Y31.6
M106 P01 S180
G01 X33.2 Y31.6 F500
M107 P01
G00 X35.0 Y31.6
M106 P01 S180
G01 X36.2 Y31.6 F500
M107 P01
G00 X38.4 Y31.6
M106 P01 S180
G01 X39.4 Y31.6 F500
M107 P01
G00 X41.4 Y31.6
M106 P01 S180
G01 X42.4 Y31.6 F500
M107 P01
G00 X42.4 Y31.8
M106 P01 S180
G01 X41.2 Y31.8 F500
M107 P01
G00 X39.6 Y31.8
M106 P01 S180
G01 X38.4 Y31.8 F500
M107 P01
G00 X36.4 Y31.8
M106 P01 S180
G01 X35.2 Y31.8 F500
M107 P01
G00 X33.2 Y31.8
M106 P01 S180
G01 X32.2 Y31.8 F500
M107 P01
G00 X30.6 Y31.8
M106 P01 S180
G01 X29.6 Y31.8 F500
M107 P01
G00 X27.2 Y31.8
M106 P01 S180
G01 X25.6 Y31.8 F500
M107 P01
G00 X22.8 Y31.8
M106 P01 S180
G01 X21.0 Y31.8 F500
M107 P01
G00 X18.0 Y31.8
M106 P01 S180
G01 X17.0 Y31.8 F500
M107 P01
G00 X14.2 Y31.8
M106 P01 S180
G01 X13.2 Y31.8 F500
M107 P01
G00 X12.0 Y31.8
M106 P01 S180
G01 X7.4 Y31.8 F500
M107 P01
G00 X7.4 Y32.0
M106 P01 S180
G01 X12.2 Y32.0 F500
M107 P01
G00 X13.2 Y32.0
M106 P01 S180
G01 X14.2 Y32.0 F500
M107 P01
G00 X17.0 Y32.0
M106 P01 S180
G01 X18.0 Y32.0 F500
M107 P01
G00 X21.0 Y32.0
M106 P01 S180
G01 X22.6 Y32.0 F500
M107 P01
G00 X25.6 Y32.0
M106 P01 S180
G01 X27.0 Y32.0 F500
M107 P01
G00 X29.6 Y32.0
M106 P01 S180
G01 X30.6 Y32.0 F500
M107 P01
G00 X32.2 Y32.0
M106 P01 S180
G01 X33.2 Y32.0 F500
M107 P01
G00 X35.4 Y32.0
M106 P01 S180
G01 X36.6 Y32.0 F500
M107 P01
G00 X38.6 Y32.0
M106 P01 S180
G01 X42.2 Y32.0 F500
M107 P01
G00 X42.0 Y32.2
M106 P01 S180
G01 X38.8 Y32.2 F500
M107 P01
G00 X36.8 Y32.2
M106 P01 S180
G01 X35.6 Y32.2 F500
M107 P01
G00 X33.0 Y32.2
M106 P01 S180
G01 X32.2 Y32.2 F500
M107 P01
G00 X30.6 Y32.2
M106 P01 S180
G01 X29.6 Y32.2 F500
M107 P01
G00 X27.0 Y32.2
M106 P01 S180
G01 X25.8 Y32.2 F500
M107 P01
G00 X22.6 Y32.2
M106 P01 S180
G01 X21.2 Y32.2 F500
M107 P01
G00 X18.0 Y32.2
M106 P01 S180
G01 X17.0 Y32.2 F500
M107 P01
G00 X14.2 Y32.2
M106 P01 S180
G01 X13.2 Y32.2 F500
M107 P01
G00 X12.2 Y32.2
M106 P01 S180
G01 X7.2 Y32.2 F500
M107 P01
G00 X7.4 Y32.4
M106 P01 S180
G01 X12.2 Y32.4 F500
M107 P01
G00 X13.2 Y32.4
M106 P01 S180
G01 X14.0 Y32.4 F500
M107 P01
G00 X17.0 Y32.4
M106 P01 S180
G01 X18.0 Y32.4 F500
M107 P01
G00 X21.2 Y32.4
M106 P01 S180
G01 X22.4 Y32.4 F500
M107 P01
G00 X25.8 Y32.4
M106 P01 S180
G01 X26.8 Y32.4 F500
M107 P01
G00 X29.6 Y32.4
M106 P01 S180
G01 X30.4 Y32.4 F500
M107 P01
G00 X32.2 Y32.4
M106 P01 S180
G01 X33.0 Y32.4 F500
M107 P01
G00 X35.8 Y32.4
M106 P01 S180
G01 X36.6 Y32.4 F500
M107 P01
G00 X39.0 Y32.4
M106 P01 S180
G01 X41.8 Y32.4 F500
M107 P01
G00 X41.4 Y32.6
M106 P01 S180
G01 X39.4 Y32.6 F500
M107 P01
G00 X36.6 Y32.6
M106 P01 S180
G01 X36.0 Y32.6 F500
M107 P01
G00 X33.0 Y32.6
M106 P01 S180
G01 X32.2 Y32.6 F500
M107 P01
G00 X30.4 Y32.6
M106 P01 S180
G01 X29.8 Y32.6 F500
M107 P01
G00 X26.6 Y32.6
M106 P01 S180
G01 X26.0 Y32.6 F500
M107 P01
G00 X22.2 Y32.6
M106 P01 S180
G01 X21.4 Y32.6 F500
M107 P01
G00 X17.8 Y32.6
M106 P01 S180
G01 X17.2 Y32.6 F500
M107 P01
G00 X14.0 Y32.6
M106 P01 S180
G01 X13.4 Y32.6 F500
M107 P01
G00 X12.0 Y32.6
M106 P01 S180
G01 X7.6 Y32.6 F500
M107 P01
G00 X0 Y0; home
M306 X0 Y0; set origin at current position
