;FLAVOR:Marlin
;TIME:2887
;Filament used: 1.35002m
;Layer height: 0.2
;MINX:131.5
;MINY:103.36
;MINZ:0.3
;MAXX:148.5
;MAXY:176.274
;MAXZ:62.1
;Generated with Cura_SteamEngine 4.2.1
M82 ;absolute extrusion mode
M82 ;absolute extrusion mode
M140 S60 ; begin heating bed
G21 ;metric values
G90 ;absolute positioning
M107 ;start with the fan off
G28 ;move to endstops
G29
G1 X0 Y0 Z5 F3000
M109 S200 ; Wait for nozzle temp
M190 S60 ;
G92 E0 ;zero the extruded length
G1 E40 F200 ;extrude 3mm of feed stock
G92 E0 ;zero the extruded length again
M117 Printing...
M141 S28
G92 E0
G92 E0
G1 F1500 E-6.5
;LAYER_COUNT:286
;LAYER:0
M107
G0 F5760 X132.118 Y104.536 Z0.3
;TYPE:SKIRT
G1 F1500 E0
G1 F1200 X132.446 Y104.173 E0.02441
G1 X132.829 Y103.868 E0.04883
G1 X133.257 Y103.63 E0.07327
G1 X133.717 Y103.464 E0.09767
G1 X134.198 Y103.375 E0.12207
G1 X134.5 Y103.36 E0.13716
G1 X145.5 Y103.361 E0.68595
G1 X145.988 Y103.401 E0.71038
G1 X146.463 Y103.52 E0.73481
G1 X146.912 Y103.714 E0.75921
G1 X147.324 Y103.979 E0.78365
G1 X147.687 Y104.307 E0.80806
G1 X147.992 Y104.69 E0.83248
G1 X148.23 Y105.118 E0.85691
G1 X148.396 Y105.578 E0.88131
G1 X148.485 Y106.06 E0.90577
G1 X148.5 Y106.361 E0.9208
G1 X148.5 Y154.12 E3.30351
G1 X148.46 Y154.608 E3.32794
G1 X148.341 Y155.083 E3.35237
G1 X148.147 Y155.532 E3.37677
G1 X147.882 Y155.944 E3.40121
G1 X147.554 Y156.307 E3.42562
G1 X147.171 Y156.612 E3.45004
G1 X146.743 Y156.85 E3.47447
G1 X146.283 Y157.016 E3.49887
G1 X145.802 Y157.105 E3.52328
G1 X145.5 Y157.12 E3.53836
G1 X134.5 Y157.12 E4.08716
G1 X134.012 Y157.08 E4.11158
G1 X133.537 Y156.961 E4.13601
G1 X133.088 Y156.767 E4.16042
G1 X132.676 Y156.502 E4.18486
G1 X132.313 Y156.174 E4.20926
G1 X132.008 Y155.791 E4.23369
G1 X131.77 Y155.363 E4.25812
G1 X131.604 Y154.903 E4.28252
G1 X131.515 Y154.422 E4.30692
G1 X131.5 Y154.12 E4.32201
G1 X131.5 Y106.36 E6.70477
G1 X131.54 Y105.872 E6.72919
G1 X131.659 Y105.397 E6.75362
G1 X131.853 Y104.948 E6.77803
G1 X132.118 Y104.536 E6.80247
G0 F5760 X132.515 Y104.681
G1 F1200 X132.838 Y104.36 E6.82519
G1 X133.213 Y104.101 E6.84792
G1 X133.627 Y103.911 E6.87065
G1 X134.068 Y103.796 E6.89339
G1 X134.5 Y103.76 E6.91501
G1 X145.5 Y103.761 E7.46381
G1 X145.954 Y103.801 E7.48654
G1 X146.394 Y103.92 E7.50928
G1 X146.807 Y104.113 E7.53203
G1 X147.179 Y104.376 E7.55476
G1 X147.5 Y104.699 E7.57747
G1 X147.759 Y105.074 E7.60021
G1 X147.949 Y105.488 E7.62294
G1 X148.064 Y105.929 E7.64568
G1 X148.1 Y106.361 E7.6673
G1 X148.1 Y154.12 E10.05001
G1 X148.06 Y154.574 E10.07275
G1 X147.942 Y155.014 E10.09547
G1 X147.748 Y155.426 E10.11819
G1 X147.485 Y155.799 E10.14096
G1 X147.162 Y156.12 E10.16368
G1 X146.787 Y156.379 E10.18642
G1 X146.373 Y156.569 E10.20915
G1 X145.932 Y156.684 E10.23188
G1 X145.5 Y156.72 E10.25351
G1 X134.5 Y156.72 E10.8023
G1 X134.046 Y156.68 E10.82504
G1 X133.606 Y156.562 E10.84777
G1 X133.194 Y156.368 E10.87049
G1 X132.821 Y156.105 E10.89326
G1 X132.5 Y155.782 E10.91598
G1 X132.241 Y155.407 E10.93871
G1 X132.051 Y154.993 E10.96144
G1 X131.936 Y154.552 E10.98418
G1 X131.9 Y154.12 E11.0058
G1 X131.9 Y106.36 E13.38856
G1 X131.94 Y105.906 E13.4113
G1 X132.058 Y105.466 E13.43403
G1 X132.252 Y105.054 E13.45674
G1 X132.515 Y104.681 E13.47951
G0 F5760 X132.651 Y105.169
G1 F1200 X132.91 Y104.84 E13.5004
G1 X133.227 Y104.566 E13.52131
G1 X133.59 Y104.357 E13.54221
G1 X133.987 Y104.221 E13.56314
G1 X134.5 Y104.16 E13.58892
G1 X145.5 Y104.161 E14.13771
G1 X145.917 Y104.201 E14.15861
G1 X146.319 Y104.319 E14.17951
G1 X146.692 Y104.512 E14.20046
G1 X147.021 Y104.771 E14.22135
G1 X147.295 Y105.088 E14.24226
G1 X147.503 Y105.452 E14.26317
G1 X147.639 Y105.848 E14.28406
G1 X147.7 Y106.361 E14.30984
G1 X147.7 Y154.12 E16.69254
G1 X147.66 Y154.537 E16.71344
G1 X147.542 Y154.939 E16.73434
G1 X147.349 Y155.311 E16.75525
G1 X147.09 Y155.64 E16.77614
G1 X146.773 Y155.914 E16.79705
G1 X146.41 Y156.123 E16.81794
G1 X146.013 Y156.259 E16.83888
G1 X145.5 Y156.32 E16.86465
G1 X134.5 Y156.32 E17.41345
G1 X134.083 Y156.28 E17.43435
G1 X133.681 Y156.162 E17.45525
G1 X133.309 Y155.969 E17.47616
G1 X132.98 Y155.71 E17.49705
G1 X132.706 Y155.393 E17.51795
G1 X132.497 Y155.03 E17.53885
G1 X132.361 Y154.633 E17.55978
G1 X132.3 Y154.12 E17.58556
G1 X132.3 Y106.36 E19.96831
G1 X132.34 Y105.943 E19.98921
G1 X132.458 Y105.541 E20.01012
G1 X132.651 Y105.169 E20.03102
G0 F5760 X133.048 Y105.296
G1 F1200 X133.303 Y105.015 E20.04995
G1 X133.612 Y104.795 E20.06888
G1 X133.959 Y104.643 E20.08778
G1 X134.5 Y104.56 E20.11509
G1 X145.5 Y104.561 E20.66388
G1 X145.877 Y104.601 E20.68279
G1 X146.237 Y104.719 E20.70169
G1 X146.565 Y104.91 E20.72063
G1 X146.845 Y105.165 E20.73952
G1 X147.066 Y105.473 E20.75844
G1 X147.217 Y105.82 E20.77732
G1 X147.3 Y106.361 E20.80462
G1 X147.3 Y154.12 E23.18733
G1 X147.26 Y154.497 E23.20624
G1 X147.142 Y154.857 E23.22514
G1 X146.952 Y155.184 E23.24401
G1 X146.697 Y155.465 E23.26294
G1 X146.388 Y155.685 E23.28187
G1 X146.041 Y155.837 E23.30077
G1 X145.5 Y155.92 E23.32807
G1 X134.5 Y155.92 E23.87686
G1 X134.123 Y155.88 E23.89578
G1 X133.763 Y155.762 E23.91468
G1 X133.436 Y155.572 E23.93355
G1 X133.155 Y155.317 E23.95248
G1 X132.935 Y155.008 E23.9714
G1 X132.783 Y154.661 E23.9903
G1 X132.7 Y154.12 E24.01761
G1 X132.7 Y106.36 E26.40037
G1 X132.74 Y105.983 E26.41928
G1 X132.858 Y105.623 E26.43818
G1 X133.048 Y105.296 E26.45705
G0 F5760 X133.445 Y105.439
G1 F1200 X133.693 Y105.216 E26.47369
G1 X133.987 Y105.057 E26.49036
G1 X134.311 Y104.973 E26.50706
G1 X134.5 Y104.96 E26.51651
G1 X145.5 Y104.961 E27.06531
G1 X145.832 Y105.001 E27.08199
G1 X146.145 Y105.118 E27.09866
G1 X146.421 Y105.306 E27.11532
G1 X146.644 Y105.554 E27.13196
G1 X146.803 Y105.849 E27.14868
G1 X146.887 Y106.172 E27.16533
G1 X146.9 Y106.361 E27.17478
G1 X146.9 Y154.12 E29.55749
G1 X146.86 Y154.452 E29.57417
G1 X146.743 Y154.764 E29.59079
G1 X146.555 Y155.041 E29.6075
G1 X146.307 Y155.264 E29.62414
G1 X146.013 Y155.423 E29.64081
G1 X145.689 Y155.507 E29.65751
G1 X145.5 Y155.52 E29.66696
G1 X134.5 Y155.52 E30.21575
G1 X134.168 Y155.48 E30.23244
G1 X133.856 Y155.363 E30.24906
G1 X133.579 Y155.175 E30.26576
G1 X133.356 Y154.927 E30.2824
G1 X133.197 Y154.633 E30.29908
G1 X133.113 Y154.309 E30.31578
G1 X133.1 Y154.12 E30.32523
G1 X133.1 Y106.36 E32.70798
G1 X133.14 Y106.028 E32.72467
G1 X133.257 Y105.716 E32.74129
G1 X133.445 Y105.439 E32.75799
G0 F5760 X133.656 Y105.824
G1 F1200 X133.839 Y105.609 E32.77208
G1 X134.075 Y105.455 E32.78614
G1 X134.345 Y105.372 E32.80023
G1 X134.5 Y105.36 E32.80799
G1 X145.5 Y105.361 E33.35678
G1 X145.779 Y105.401 E33.37084
G1 X146.036 Y105.517 E33.38491
G1 X146.251 Y105.701 E33.39903
G1 X146.405 Y105.937 E33.41309
G1 X146.488 Y106.206 E33.42713
G1 X146.5 Y106.361 E33.43489
G1 X146.5 Y154.12 E35.81759
G1 X146.46 Y154.399 E35.83165
G1 X146.344 Y154.656 E35.84572
G1 X146.161 Y154.871 E35.85981
G1 X145.925 Y155.025 E35.87387
G1 X145.655 Y155.108 E35.88796
G1 X145.5 Y155.12 E35.89572
G1 X134.5 Y155.12 E36.44451
G1 X134.221 Y155.08 E36.45857
G1 X133.964 Y154.964 E36.47264
G1 X133.749 Y154.781 E36.48672
G1 X133.595 Y154.545 E36.50078
G1 X133.512 Y154.275 E36.51487
G1 X133.5 Y154.12 E36.52263
G1 X133.5 Y106.36 E38.90539
G1 X133.54 Y106.081 E38.91945
G1 X133.656 Y105.824 E38.93352
G0 F5760 X134.053 Y105.959
G1 F1200 X134.226 Y105.826 E38.9444
G1 X134.5 Y105.76 E38.95846
G1 X145.5 Y105.761 E39.50726
G1 X145.715 Y105.801 E39.51817
G1 X145.901 Y105.914 E39.52902
G1 X146.034 Y106.087 E39.53991
G1 X146.1 Y106.361 E39.55397
G1 X146.1 Y154.12 E41.93668
G1 X146.06 Y154.335 E41.94759
G1 X145.947 Y154.521 E41.95845
G1 X145.774 Y154.654 E41.96933
G1 X145.5 Y154.72 E41.98339
G1 X134.5 Y154.72 E42.53219
G1 X134.285 Y154.68 E42.5431
G1 X134.099 Y154.567 E42.55395
G1 X133.966 Y154.394 E42.56484
G1 X133.9 Y154.12 E42.5789
G1 X133.9 Y106.36 E44.96166
G1 X133.94 Y106.145 E44.97257
G1 X134.053 Y105.959 E44.98343
G0 F5760 X134.339 Y106.241
G1 F1200 X134.5 Y106.16 E44.99242
G1 X145.5 Y106.161 E45.54121
G1 X145.619 Y106.2 E45.54746
G1 X145.7 Y106.361 E45.55645
G1 X145.7 Y154.12 E47.93916
G1 X145.661 Y154.239 E47.9454
G1 X145.5 Y154.32 E47.95439
G1 X134.5 Y154.32 E48.50319
G1 X134.381 Y154.281 E48.50943
G1 X134.3 Y154.12 E48.51843
G1 X134.3 Y106.36 E50.90118
G1 X134.339 Y106.241 E50.90743
G1 F1500 E44.40743
G1 F600 Z1.3
;MESH:Overhang_Angle_Test_30-75.stl
G0 F5760 X145.3 Y153.92 Z1.3
;TYPE:WALL-OUTER
G1 F600 Z0.3
G1 F1500 E50.90743
G1 F1200 X134.7 Y153.92 E51.43627
G1 X134.7 Y106.76 E53.78909
G1 X134.7 Y106.56 E53.79907
G1 X134.9 Y106.56 E53.80553
G1 X145.3 Y106.561 E54.32438
G1 X145.3 Y153.92 E56.68713
G0 F5760 X145.1 Y153.92
G0 X144.9 Y153.52
;TYPE:WALL-INNER
G1 F1200 X135.1 Y153.52 E57.17606
G1 X135.1 Y107.16 E59.48897
G1 X135.1 Y106.96 E59.49895
G1 X135.3 Y106.96 E59.50541
G1 X144.9 Y106.961 E59.98435
G1 X144.9 Y153.52 E62.30719
G0 F5760 X144.51 Y153.13
;TYPE:SKIN
G1 F1200 X135.49 Y153.13 E62.7572
G1 X135.49 Y107.35 E65.04117
G1 X144.51 Y107.351 E65.49118
G1 X144.51 Y153.13 E67.77511
G0 F5760 X135.978 Y152.949
G1 F1200 X135.669 Y152.64 E67.79691
G0 F5760 X135.669 Y152.074
G1 F1200 X136.544 Y152.949 E67.85865
G0 F5760 X137.11 Y152.949
G1 F1200 X135.669 Y151.508 E67.96032
G0 F5760 X135.669 Y150.943
G1 F1200 X137.675 Y152.949 E68.10185
G0 F5760 X138.241 Y152.949
G1 F1200 X135.669 Y150.377 E68.28332
G0 F5760 X135.669 Y149.811
G1 F1200 X138.807 Y152.949 E68.50472
G0 F5760 X139.372 Y152.949
G1 F1200 X135.669 Y149.246 E68.76599
G0 F5760 X135.669 Y148.68
G1 F1200 X139.938 Y152.949 E69.06719
G0 F5760 X140.504 Y152.949
G1 F1200 X135.669 Y148.114 E69.40832
G0 F5760 X135.669 Y147.549
G1 F1200 X141.069 Y152.949 E69.78932
G0 F5760 X141.635 Y152.949
G1 F1200 X135.669 Y146.983 E70.21026
G0 F5760 X135.669 Y146.417
G1 F1200 X142.201 Y152.949 E70.67112
G0 F5760 X142.766 Y152.949
G1 F1200 X135.669 Y145.852 E71.17186
G0 F5760 X135.669 Y145.286
G1 F1200 X143.332 Y152.949 E71.71252
G0 F5760 X143.898 Y152.949
G1 F1200 X135.669 Y144.72 E72.29312
G0 F5760 X135.669 Y144.155
G1 F1200 X144.329 Y152.814 E72.9041
G0 F5760 X144.329 Y152.249
G1 F1200 X135.669 Y143.589 E73.51511
G0 F5760 X135.669 Y143.023
G1 F1200 X144.329 Y151.683 E74.12612
G0 F5760 X144.329 Y151.117
G1 F1200 X135.669 Y142.457 E74.73713
G0 F5760 X135.669 Y141.892
G1 F1200 X144.329 Y150.552 E75.34814
G0 F5760 X144.329 Y149.986
G1 F1200 X135.669 Y141.326 E75.95915
G0 F5760 X135.669 Y140.76
G1 F1200 X144.329 Y149.42 E76.57016
G0 F5760 X144.329 Y148.855
G1 F1200 X135.669 Y140.195 E77.18117
G0 F5760 X135.669 Y139.629
G1 F1200 X144.329 Y148.289 E77.79218
G0 F5760 X144.329 Y147.723
G1 F1200 X135.669 Y139.063 E78.40319
G0 F5760 X135.669 Y138.498
G1 F1200 X144.329 Y147.158 E79.01419
G0 F5760 X144.329 Y146.592
G1 F1200 X135.669 Y137.932 E79.6252
G0 F5760 X135.669 Y137.366
G1 F1200 X144.329 Y146.026 E80.23621
G0 F5760 X144.329 Y145.461
G1 F1200 X135.669 Y136.801 E80.84722
G0 F5760 X135.669 Y136.235
G1 F1200 X144.329 Y144.895 E81.45823
G0 F5760 X144.329 Y144.329
G1 F1200 X135.669 Y135.669 E82.06924
G0 F5760 X135.669 Y135.104
G1 F1200 X144.329 Y143.764 E82.68025
G0 F5760 X144.329 Y143.198
G1 F1200 X135.669 Y134.538 E83.29126
G0 F5760 X135.669 Y133.972
G1 F1200 X144.329 Y142.632 E83.90227
G0 F5760 X144.329 Y142.066
G1 F1200 X135.669 Y133.407 E84.51325
G0 F5760 X135.669 Y132.841
G1 F1200 X144.329 Y141.501 E85.12426
G0 F5760 X144.329 Y140.935
G1 F1200 X135.669 Y132.275 E85.73527
G0 F5760 X135.669 Y131.709
G1 F1200 X144.329 Y140.369 E86.34628
G0 F5760 X144.329 Y139.804
G1 F1200 X135.669 Y131.144 E86.95729
G0 F5760 X135.669 Y130.578
G1 F1200 X144.329 Y139.238 E87.5683
G0 F5760 X144.329 Y138.672
G1 F1200 X135.669 Y130.012 E88.17931
G0 F5760 X135.669 Y129.446
G1 F1200 X144.329 Y138.107 E88.79035
G0 F5760 X144.329 Y137.541
G1 F1200 X135.669 Y128.88 E89.4014
G0 F5760 X135.669 Y128.315
G1 F1200 X144.329 Y136.975 E90.01241
G0 F5760 X144.329 Y136.41
G1 F1200 X135.669 Y127.749 E90.62345
G0 F5760 X135.669 Y127.183
G1 F1200 X144.329 Y135.844 E91.2345
G0 F5760 X144.329 Y135.278
G1 F1200 X135.669 Y126.618 E91.84551
G0 F5760 X135.669 Y126.052
G1 F1200 X144.329 Y134.713 E92.45655
G0 F5760 X144.329 Y134.147
G1 F1200 X135.669 Y125.486 E93.0676
G0 F5760 X135.669 Y124.921
G1 F1200 X144.329 Y133.581 E93.67861
G0 F5760 X144.329 Y133.015
G1 F1200 X135.669 Y124.355 E94.28962
G0 F5760 X135.669 Y123.789
G1 F1200 X144.329 Y132.45 E94.90066
G0 F5760 X144.329 Y131.884
G1 F1200 X135.669 Y123.223 E95.51171
G0 F5760 X135.669 Y122.658
G1 F1200 X144.329 Y131.318 E96.12272
G0 F5760 X144.329 Y130.753
G1 F1200 X135.669 Y122.092 E96.73376
G0 F5760 X135.669 Y121.526
G1 F1200 X144.329 Y130.187 E97.34481
G0 F5760 X144.329 Y129.621
G1 F1200 X135.669 Y120.961 E97.95582
G0 F5760 X135.669 Y120.395
G1 F1200 X144.329 Y129.056 E98.56686
G0 F5760 X144.329 Y128.49
G1 F1200 X135.669 Y119.829 E99.17791
G0 F5760 X135.669 Y119.264
G1 F1200 X144.329 Y127.924 E99.78892
G0 F5760 X144.329 Y127.359
G1 F1200 X135.669 Y118.698 E100.39996
G0 F5760 X135.669 Y118.132
G1 F1200 X144.329 Y126.793 E101.01101
G0 F5760 X144.329 Y126.227
G1 F1200 X135.669 Y117.567 E101.62202
G0 F5760 X135.669 Y117.001
G1 F1200 X144.329 Y125.662 E102.23306
G0 F5760 X144.329 Y125.096
G1 F1200 X135.669 Y116.435 E102.84411
G0 F5760 X135.669 Y115.87
G1 F1200 X144.329 Y124.53 E103.45511
G0 F5760 X144.329 Y123.965
G1 F1200 X135.669 Y115.304 E104.06616
G0 F5760 X135.669 Y114.738
G1 F1200 X144.329 Y123.399 E104.67721
G0 F5760 X144.329 Y122.833
G1 F1200 X135.669 Y114.172 E105.28825
G0 F5760 X135.669 Y113.607
G1 F1200 X144.329 Y122.267 E105.89926
G0 F5760 X144.329 Y121.702
G1 F1200 X135.669 Y113.041 E106.5103
G0 F5760 X135.669 Y112.475
G1 F1200 X144.329 Y121.136 E107.12135
G0 F5760 X144.329 Y120.57
G1 F1200 X135.669 Y111.91 E107.73236
G0 F5760 X135.669 Y111.344
G1 F1200 X144.329 Y120.005 E108.3434
G0 F5760 X144.329 Y119.439
G1 F1200 X135.669 Y110.778 E108.95445
G0 F5760 X135.669 Y110.213
G1 F1200 X144.329 Y118.873 E109.56546
G0 F5760 X144.329 Y118.308
G1 F1200 X135.669 Y109.647 E110.1765
G0 F5760 X135.669 Y109.081
G1 F1200 X144.329 Y117.742 E110.78755
G0 F5760 X144.329 Y117.176
G1 F1200 X135.669 Y108.516 E111.39856
G0 F5760 X135.669 Y107.95
G1 F1200 X144.329 Y116.611 E112.0096
G0 F5760 X144.329 Y116.045
G1 F1200 X135.815 Y107.531 E112.61031
G0 F5760 X136.381 Y107.531
G1 F1200 X144.329 Y115.479 E113.17109
G0 F5760 X144.329 Y114.914
G1 F1200 X136.946 Y107.531 E113.692
G0 F5760 X137.512 Y107.531
G1 F1200 X144.329 Y114.348 E114.17297
G0 F5760 X144.329 Y113.782
G1 F1200 X138.078 Y107.531 E114.61402
G0 F5760 X138.643 Y107.531
G1 F1200 X144.329 Y113.216 E115.01516
G0 F5760 X144.329 Y112.651
G1 F1200 X139.209 Y107.531 E115.3764
G0 F5760 X139.775 Y107.531
G1 F1200 X144.329 Y112.085 E115.69771
G0 F5760 X144.329 Y111.519
G1 F1200 X140.34 Y107.531 E115.97912
G0 F5760 X140.906 Y107.531
G1 F1200 X144.329 Y110.954 E116.22063
G0 F5760 X144.329 Y110.388
G1 F1200 X141.472 Y107.531 E116.42221
G0 F5760 X142.037 Y107.531
G1 F1200 X144.329 Y109.822 E116.58389
G0 F5760 X144.329 Y109.257
G1 F1200 X142.603 Y107.531 E116.70567
G0 F5760 X143.169 Y107.531
G1 F1200 X144.329 Y108.691 E116.78751
G0 F5760 X144.329 Y108.125
G1 F1200 X143.735 Y107.531 E116.82942
M104 S200
G1 X143.665 Y107.461
;MESH:NONMESH
G0 F600 X143.665 Y107.461 Z0.5
G0 F5760 X144.83 Y153.45
G0 X144.9 Y153.52
;TIME_ELAPSED:124.571340
;LAYER:1
M140 S60
M106 S255
;TYPE:WALL-INNER
;MESH:Overhang_Angle_Test_30-75.stl
G1 F1350 X135.1 Y153.52 E117.15537
G1 X135.1 Y106.893 E118.70619
G1 X135.1 Y106.693 E118.71284
G1 X135.3 Y106.693 E118.71715
G1 X144.9 Y106.694 E119.03645
G1 X144.9 Y153.52 E120.59389
G0 F6480 X145.3 Y153.92
;TYPE:WALL-OUTER
G1 F1350 X134.7 Y153.92 E120.94644
